X:1
T:Inno di Garibaldi
T:Inno di Garibaldi
T:Alessio Olivieri
T:Luigi Mercantini
T:Sien mute le lingue, sien pronte le braccia; Soltanto al nemico volgiamo la faccia, E tosto oltre i monti n’andrà lo straniero Se tutta un pensiero l’Italia sarà. Non basta il trionfo di barbare spoglie; Si chiudan ai ladri d’Italia le soglie; Le genti d’Italia son tutte una sola, Son tutte una sola le cento città. Va fuora d’Italia, va fuora ch’è l’ora, Va fuora d’Italia, va fuora, o stranier! Se ancora dell’Alpi tentasser gli spaldi, Il grido d’all’armi darà Garibaldi: E s’arma allo squillo, che vien da Caprera, Dei mille la schiera che l’Etna assaltò. E dietro alla rossa vanguardia dei bravi Si muovon d’Italia le tende e le navi: Già ratto sull’orma del fido guerriero L’ardente destriero Vittorio spronò. Va fuora d’Italia, va fuora ch’è l’ora, Va fuora d’Italia, va fuora, o stranier! Per sempre è caduto degli empi l’orgoglio; A dir "Viva Italia!" va il Re in Campidoglio; La Senna e il Tamigi saluta ed onora L’antica signora  che torna a regnar. Contenta del regno fra l’isole e i monti, Soltanto ai tiranni minaccia le fronti: Dovunque le genti percuota un tiranno Suoi figli usciranno  per terra e per mar. Va fuora d’Italia, va fuora ch’è l’ora, Va fuora d’Italia, va fuora, o stranier! 
T: Si scopron le tombe, si levano i morti; I martiri nostri son tutti risorti: Le spade nel pugno, gli allori alle chiome, La fiamma ed il nome d’Italia sul cor. Veniamo! Veniamo! Su, o giovani schiere, Su al vento per tutto le nostre bandiere, Su tutti col ferro, su tutti col fuoco, Su tutti col fuoco d’Italia nel cor. Va fuora d’Italia, va fuora ch’è l’ora, Va fuora d’Italia, va fuora, o stranier! La terra dei fiori, dei suoni e dei carmi, Ritorni, qual era, la terra dell’armi; Di cento catene ci avvinser la mano, Ma ancor di Legnano sa i ferri brandir. Bastone Tedesco l’Italia non doma, Non crescon al giogo le stirpi di Roma; Più Italia non vuole stranieri e tiranni: Già troppi son gli anni che dura il servir. Va fuora d’Italia, va fuora ch’è l’ora, Va fuora d’Italia, va fuora, o stranier! Le case d’Italia son fatte per noi, È là sul Danubio la casa de’ tuoi; Tu i campi ci guasti; tu il pane c’involi; I nostri figliuoli per noi li vogliam. Son l’Alpi e i due mari d’Italia i confini; Col carro di fuoco rompiam gli Apennini, Distrutto ogni segno di vecchia frontiera, La nostra bandiera per tutto innalziam. Va fuora d’Italia, va fuora ch’è l’ora, Va fuora d’Italia, va fuora, o stranier!
T:Inno di Garibaldi
T:canto popolare con accompagnamento di chitarra
T:by IMSLP - pubblico dominio 
T:by IMSLP - pubblico dominio 
T:by IMSLP - pubblico dominio 
T:by IMSLP - pubblico dominio 
T:by IMSLP - pubblico dominio 
C:Alessio Olivieri
Z:Luigi Mercantini
Z:by IMSLP - pubblico dominio
%%score 1 2 3 { ( 4 6 ) | 5 }
L:1/8
Q:1/4=120
M:2/4
K:F
V:1 treble nm="Voice"
V:2 treble nm="Voice"
V:3 treble-8 nm="Classical Guitar"
V:4 treble nm="Piano"
V:6 treble 
V:5 bass 
V:1
"^Tempo di Marcia" z2 z F | F2 A3/2 G/ | F2 A3/2 B/ | c2 A3/2 F/ | (G2 D) z/ G/ | G2 B3/2 A/ | %6
w: Si|sco\- pron le|tom\- be, si|le\- va\- no|i mor\- ti, i|mar\- ti\- ri|
 GA B c | d2 e3/2 d/ | d3/2 c/ A3/2 F/ | F2 A3/2 G/ | F2 A>B | c2 A3/2 F/ | (G2 D) z/ G/ | %13
w: no- * stri son|tut\- ti ri\-|sor _ ti. le|spa\- de nel|pu\- gno gli|allo\- ri alle|chio\- me, la|
 G2 B3/2 A/ | GA B c | d2 e3/2 e/ | f z z G | AG E F | AG E F | GA =B c | (d>e d) z/ d/ | %21
w: fiam\- ma ed il|no _ me d'I\-|ta\- lia nel|cor! Cor\-|ria _ mo, cor\-|ria _ mo, su.|gio _ va\- ni|schie _ re, al\-|
 d2 f3/2 d/ | =B2 d7/4 B/4 | G2{AG} ^F3/2 G/ | A3/2 G/ Ez/G/ | AG E F | AG E F | GA =B c | %28
w: ven\- to spie\-|gan\- do le|no\- stre ban\-|die _ re, su,|tut _ ti col|fer _ ro, su|tut _ ti col|
 (d>e d) z/ d/ | d2 f3/2 d/ | =B2 d3/2 B/ | G2 e3/2 d/ | c z z c | !>!f2 F>A | (c>d c) z/ c/ | %35
w: fuo _ co, su,|tut\- ti col|fuo\- co d'I|ta\- lia nel|cor. Va|fuo\- ra d'I\-|ta _ lia, va|
 !>!f2 F>A | (c>d c) z/ c/ | c2 c3/2 c/ | c2 c3/2 c/ | c2 d3/2 e/ | f z z2 | z4[Q:1/4=126] | z4 | %43
w: fuo\- ra ch'è|l'o _ ra, va|fuo\- ra d'I|ta\- lia, va|fuo\- rao stra\-|nier!|||
 z4 | z4 | z4 | z4 | z4 | z4!D.C.! |[M:2/4] z | z4 | z4 | z4 | z4 | z4 | z4 | z4 | z4 | z4 | z4 | %60
w: |||||||||||||||||
 z4 | z4 | z4 | z4 | z4 | z4 | z4 | z4 | z4 | z4 | z4 | z4 | z4 | z4 | z4 | z4 | z4 | z4 | z4 | %79
w: |||||||||||||||||||
 z4 | z4 | z4 | z4 | z4 | z4 | z4 | z4 | z4 | z4 | z4 |] %90
w: |||||||||||
V:2
 z4 | z4 | z4 | z4 | z4 | z4 | z4 | z4 | z4 | z4 | z4 | z4 | z4 | z4 | z4 | z4 | z4 | z4 | z4 | %19
w: |||||||||||||||||||
 z4 | z4 | z4 | z4 | z4 | z4 | z4 | z4 | z4 | z4 | z4 | z4 | z4 | z4 | z4 | z4 | z4 | z4 | z4 | %38
w: |||||||||||||||||||
 z4 | z4 | z4 | z4 | z4 | z4 | z4 | z4 | z4 | z4 | z4 |[M:2/4] F | F2 A3/2 G/ | F2 A3/2 B/ | %52
w: |||||||||||Si|sco\- pron le|tom\- be, si|
 c2 A3/2 F/ | G2 D z/ G/ | G2 B3/2 A/ | (GA) B c | d2 e3/2 d/ | (dc) A z/ F/ | F2 A3/2 G/ | %59
w: le\- va\- no|i mor\- ti, i|mar\- ti\- ri|no- * stri son|tut\- ti ri\-|sor _ ti. le|spa\- de nel|
 F2 A3/2 B/ | c2 A3/2 F/ | G2 D z/ G/ | G2 B3/2 A/ | (GA) B c | d2 e e | f2 z G | (AG) E F | %67
w: pu\- gno gli|allo\- ri alle|chio\- me, la|fiam\- ma ed il|no _ me d'I\-|ta\- lia nel|cor! Cor\-|ria _ mo, cor\-|
 (AG) E F | GA =B c | (d>e d3/2) d/ | d2 f3/2 d/ | =B2 d3/2 B/ | G2{AG} ^F3/2 G/ | (AG) E G | %74
w: ria _ mo, su.|gio _ va\- ni|schie _ re, al\-|ven\- to spie\-|gan\- do le|no\- stre ban\-|die _ re, su,|
 (AG) E F | (AG) E F | (GA) =B c | (d>e d3/2) d/ | d2 f3/2 d/ | =B2 d3/2 B/ | G2 e3/2 d/ | %81
w: tut _ ti col|fer _ ro, su,|tut _ ti col|fuo _ co, su,|tut\- ti col|fuo\- co d'I|ta\- lia nel|
 c z z c | !>!f2 F>A | (c>d c) z/ c/ | !>!f2 F3/2 A/ | (c>d c) z/ c/ | c2 c3/2 c/ | c2 c3/2 c/ | %88
w: cor. Va|fuo\- ra d'I\-|ta _ lia, va|fuo\- ra ch'è|l'o _ ra, va|fuo\- ra d'I|ta\- lia, va|
 c2 d3/2 e/ | f z z2 |] %90
w: fuo\- rao stra\-|nier!|
V:3
 z4 | z4 | z4 | z4 | z4 | z4 | z4 | z4 | z4 | z4 | z4 | z4 | z4 | z4 | z4 | z4 | z4 | z4 | z4 | %19
 z4 | z4 | z4 | z4 | z4 | z4 | z4 | z4 | z4 | z4 | z4 | z4 | z4 | z4 | z4 | z4 | z4 | z4 | z4 | %38
 z4 | z4 | z4 | z4 | z4 | z4 | z4 | z4 | z4 | z4 | z4 |[M:2/4][K:treble] z | F,2 [Acf]2 | %51
 F,2 [Acf]2 | F,2 [Acf]2 | B,2 [Bdg]2 | B,2 [Bdg]2 | C2 [Bce]2 | E,2 [Bce]2 | F,2 [Acf]2 | %58
 F,2 [Acf]2 | F,2 [Acf]2 | F,2 [Acf]2 | B,2 [Bdg]2 | B,2 [Bdg]2 | C2 [Bce]2 | [CBce]2 [CBce]2 | %65
 [F,Acf] z z2 | C[Gce] [Gce][Gce] | C[Gce] [Gce][Gce] | C[Gce] [Gce][Gce] | B,[GBf] [GBf][GBf] | %70
 G,[GBf] [GBf][GBf] | D[GBf] [GBf][GBf] | G,[GBf] [GBf][GBf] | C[Gce] [Gce][Gce] | %74
 C[Gce] [Gce][Gce] | C[Gce] [Gce][Gce] | C[Gce] [Gce][Gce] | B,[GBf] [GBf][GBf] | %78
 G,[GBf] [GBf][GBf] | D[GBf] [GBf][GBf] | G,[GBf] [GBf][GBf] | [CGce]C/C/CC | [F,Acf]2 [F,Acf]2 | %83
 [CBce]2 [CBce]2 | [F,Acf]2 [F,Acf]2 | [CBce]2 [CBce]2 | [CBce]2 [CBce]2 | [CBce]2 [CBce]2 | %88
 [CBce]2 [CBce]2 | [F,Acf] z z2 |] %90
V:4
 z2 z F | F2 A>G | F2 A>B | c2 A>F | (G2 D)z/G/ | G2 [GB]>[FA] | [EG][FA][GB][Ac] | %7
 [Bd]2 [ce]>[Bd] | ([Bd]>[Ac] [FA])z/F/ | F2 A>G | F2 A>B | c2 A>F | (G2 D)z/G/ | G2 [GB]>[FA] | %14
 [EG][FA][GB][Ac] | [Bd]2 [Bce]>[Bce] | [Acf] z z G | AGEF | AGEF | GA=Bc | (d>e d)z/d/ | d2 f>d | %22
 =B2 d7/4B/4 | G2{AG} ^F>G | A>G Ez/G/ | AGEF | AGEF | GA=Bc | (d>e d)z/d/ | d2 f>d | =B2 d>B | %31
 G2 [Ge]>[Fd] | [Ec] z z c | !>![Af]2 F>A | (c>d c)z/c/ | !>![Af]2 F>A | (c>d c) z/ c/ | %37
 [GBc]2 [GBc]>G | [GBc]2 [GBc]>[GBc] | [GBc]2 [GBd]>[GBce] | [Acf].f/.f/ .f.f | bd fB | %42
 (d_e/d/) cB | (F/A/c/_e/) gg | g_g ff/f/ | bd fB | (d_e/d/) cB | (A/B/c/d/ _e/f/g/a/) | %48
 b[dfb][dfb] z |[M:2/4] z | z4 | z4 | z4 | z4 | z4 | z4 | z4 | z4 | z4 | z4 | z4 | z4 | z4 | z4 | %64
 z4 | z4 | z4 | z4 | z4 | z4 | z4 | z4 | z4 | z4 | z4 | z4 | z4 | z4 | z4 | z4 | z4 | z4 | z4 | %83
 z4 | z4 | z4 | z4 | z4 | z4 | z4 |] %90
V:5
 z4 | [F,,F,] z [F,A,C] z | [F,,F,] z [F,A,C] z | [F,,F,] z [F,A,C] z | [B,,,B,,] z [D,G,B,] z | %5
 [B,,,B,,] z [E,G,B,] z | [C,,C,] z [G,B,C] z | [C,,C,] z [G,B,C] z | [F,,F,] z [F,A,C] z | %9
 [F,,F,] z [F,A,C] z | [F,,F,] z [F,A,C] z | [F,,F,] z [F,A,C] z | [B,,,B,,] z [D,A,C] z | %13
 [B,,,B,,] z [G,B,D] z | [C,,C,] z [B,CE] z | [C,,C,] z [B,CE] z | [F,,F,] z z2 | %17
 C,[E,G,C][E,G,C][E,G,C] | C,[E,G,C][E,G,C][E,G,C] | C,[E,G,C][E,G,C][E,G,C] | %20
 C,[F,G,=B,][F,G,B,][F,G,B,] | G,,[F,G,=B,][F,G,B,][F,G,B,] | G,,[F,G,=B,][F,G,B,][F,G,B,] | %23
 G,,[F,G,=B,][F,G,B,][F,G,B,] | C,[E,G,C][E,G,C][E,G,C] | C,[E,G,C][E,G,C][E,G,C] | %26
 C,[E,G,C][E,G,C][E,G,C] | C,[E,G,C][E,G,C][E,G,C] | G,,[F,G,=B,][F,G,B,][F,G,B,] | %29
 G,,[F,G,=B,][F,G,B,][F,G,B,] | G,,[F,G,=B,][F,G,B,][F,G,B,] | G,,[F,G,=B,][F,G,B,][F,G,B,] | %32
 [C,E,G,C]C,/C,/ C,C, | [F,,F,] z [F,A,C] z | [C,,C,] z [G,B,C] z | [F,,F,] z [F,A,C] z | %36
 [C,,C,] z [G,B,C] z | [C,E,G,B,][C,E,G,B,][C,E,G,B,][C,E,G,B,] | %38
 [C,E,G,B,][C,E,G,B,][C,E,G,B,][C,E,G,B,] | [C,E,G,B,][C,E,G,B,][C,E,G,B,][C,E,G,B,] | %40
 [C,F,A,].F,/.F,/ .F,.F, | [B,,B,][F,B,D]"^vivace"[F,B,D][F,B,D] | [B,,B,][F,B,D][F,B,D][F,B,D] | %43
 [F,,F,][A,C_E][A,CE][A,CE] | [B,,B,][F,B,D][F,B,D][F,B,D] | [B,,B,][F,B,D][F,B,D][F,B,D] | %46
 [B,,B,][F,B,D][F,B,D][F,B,D] | [F,,F,][A,C_E][A,CE][A,CE] | [F,B,D] z [B,,B,] z |[M:2/4] z | z4 | %51
 z4 | z4 | z4 | z4 | z4 | z4 | z4 | z4 | z4 | z4 | z4 | z4 | z4 | z4 | z4 | z4 | z4 | z4 | z4 | %70
 z4 | z4 | z4 | z4 | z4 | z4 | z4 | z4 | z4 | z4 | z4 | z4 | z4 | z4 | z4 | z4 | z4 | z4 | z4 | %89
 z4 |] %90
V:6
 x4 | x4 | x4 | x4 | x4 | x4 | x4 | x4 | x4 | x4 | x4 | x4 | x4 | x4 | x4 | x4 | x4 | x4 | x4 | %19
 x4 | x4 | x4 | x4 | x4 | x4 | x4 | x4 | x4 | x4 | x4 | x4 | x4 | x4 | x4 | x4 | x4 | x4 | x4 | %38
 x4 | x4 | x4 | x4 | x4 | x2 (A2 | B2-) B z | x4 | x4 | x4 | x4 |[M:2/4] x | x4 | x4 | x4 | x4 | %54
 x4 | x4 | x4 | x4 | x4 | x4 | x4 | x4 | x4 | x4 | x4 | x4 | x4 | x4 | x4 | x4 | x4 | x4 | x4 | %73
 x4 | x4 | x4 | x4 | x4 | x4 | x4 | x4 | x4 | x4 | x4 | x4 | x4 | x4 | x4 | x4 | x4 |] %90

